X:1
T:A minor           Amos Pilsbury, 1799
T:William Hammond, 1745    77. 77.
T:Salem
T:Transcribed from  The United States Sacred Harmony, 1799.
%%score [ 1 2 3 4 ]
L:1/8
Q:1/4=80
M:2/4
K:C
V:1 treble nm="Tr." snm="Tr."
V:2 treble nm="C." snm="C."
V:3 treble-8 nm="T." snm="T."
V:4 bass nm="B." snm="B."
V:1
 c2 c2 | e2 e2 | e2 dc | B4 | c2 c2 | A2 A2 | B2 BA | ^G4 | A2 A2 | c2 c2 | e2 B2 | c4 |: Ac BG | %13
w: 1.~Lord, we|come be-|fore thee *|now,|At thy|feet we|hum- bly *|bow,|At thy|feet we|hum- bly|bow;|O * do *|
w: 2.~Lord, on|thee our|souls de- *|pend,|In com-|pas- sion|now de- *|scend,|In com-|pas- sion|now de-|scend:|Fill * our *|
 ce ec | B2 B2 | c4 | %16
w: not * our *|suit dis-|dain,|
w: hearts * with *|thy rich|grace,|
"^Shall          we               seek        thee,\nTune         our              lips          to" z4 | %17
w: |
w: |
 z4 |"^Lord,     in      vain?   \nsing        thy   praise," z4 | z4 | ed cB | c3 B | A2 ^G2 | %23
w: |||Shall * we *|seek thee,|Lord, in|
w: |||Tune * our *|lips to|sing thy|
 A4 :| %24
w: vain?|
w: praise.|
V:2
 E2 E2 | A2 A2 | A2 GF | E4 | E2 E2 | E2 E2 | G2 A2 | ^G4 | E2 E2 | G2 G2 | G2 F2 | E4 |: A2 G2 | %13
w: 3.~In thine|own ap-|poin- ted *|way.|Now we|seek thee~–|here we|stay,|Now we|seek thee~~–|here we|stay;|Lord, we|
w: 4.~Send seom|mes- sage|from thy *|word,|That may|joy and|peace af-|ford,|That may|joy and|peace af-|ford;|Let thy|
 A2 A2 | E2 F2 | E4 | %16
w: know not|how to|go|
w: Spi- rit|now im-|part|
"^Till             a                  bles   –    sing \n Full            sal       –      va      –    tion" z4 | %17
w: |
w: |
 z4 |"^thou     be   –   stow,     \nto        each       heart," z4 | z4 | E2 AG | A3 F | E2 E2 | %23
w: |||Till a *|bles- sing|thou be-|
w: |||Full sal- *|va- tion|to each|
 E4 :| %24
w: stow.|
w: heart.|
V:3
 E2 E2 | A2 A2 | c2 BA | (A2 ^G2) | A2 A2 | c2 c2 | e2 dc | (c2 B2) | c2 c2 | e2 gf | e2 ^d2 | %11
w: 5.~Com- fort|those who|weep and *|mourn,~ _|Let the|time of|joy re- *|turn,~ _|Let the|time of *|joy re-|
w: 6.~Grant that|those who|seek may *|find~ _|Thee a|God sin-|cere and *|kind,~ _|Thee a|God sin- *|cere and|
 e4 |: ec dB | cA EF | G2 F2 | E4 | ec dB | cA EF | G2 F2 | E4 | A^G cd | e>f ed | c2 B2 | A4 :| %24
w: turn;|Those * that *|are * cast *|down lift|up,|Make * them *|strong * in *|faith and|hope,|Make * them *|strong~ _ _ in|faith and|hope.|
w: kind;|Heal * the *|sick, * the *|cap- tive|free,|Let * us *|all * re- *|joice in|thee,|Let * us *|all~ _ _ re-|joice in|thee.|
V:4
 E,2 E,2 | A,,2 A,,2 | E,2 D,C, | ^G,,4 | A,,2 A,,2 | C,2 E,2 | G,2 A,2 | E,4 | A,2 A,2 | E,2 E,2 | %10
 G,2 F,2 | E,4 |: [E,A,]2 G,2 | A,2 E,2 | G,2 G,,2 | C,4 | [E,A,]2 G,2 | A,2 E,2 | G,2 G,,2 | C,4 | %20
 CB, A,^G, | %21
"^__________________________________________________\nEdited by B. C. Johnston, 2018\n   1. Measure 11, Bass: last note changed from D# to F." A,2 C,>D, | %22
 E,2 E,2 | A,,4 :| %24

